X:9
M:C
L:1/8
Q:1/4=70
K:E Minor
(E/4^D/4E/4F/4|
d>B c>A B2 E (E/4^D/4E/4F/4|
E/>f/|g>af>g e>^dB>f|g>ef>^d e2 B (g/4f/4g/4a/4|
b>)ag>f e3/2(g/4f/8a/8) g>e|
d>Bc>A B2 E (E/4^D/4E/4F/4|
d>B c>A B2 E (E/4^D/4E/4F/4|

